X: 1
T:DÃ¹thaich nan craobh
M:3/4
L:1/8
B:Campbell &amp; Campbell - The Kilberry Book of Ceol Meadhonach (1908, No. 13, p. 7)
F:http://tunearch.org/wiki/Land_of_the_Trees_(The)	 2022-05-02 015109 UT
K:D
e2|A2A2d2|B2A2 Bd|e2e2f2|e2e2 ef|
A2A2 GA|B2d2 de|f2 ed B2|A4:|
|:Bd|e2 f&gt;A Bd|B2A2 Bd|e2 fa f2 e/f/|e2d2 f&gt;A|
A2 GA BA|B2d2 de|f2 ed B2|A4:|]
</pre>
<pre>X:2
T:Land of the Trees, The
T:DÃ¹thaich nan craobh
M:3/4
L:1/8
B:Parlane &amp; Paisley - Choisir-chiuil/The Gaelic Choir
K:Ab
"Verse"
AB|c2e2f2|c2B2 cB|A2E2F2|C2E2 AG|
F2D2C2|E2F2 AB|cB A2 B2|c4||
"Chorus"
AG|F2E2c2|c2B2 ce|f2e2c2|B2c2AG|
F2D2C2|E2A2B2|cB A2G|F4||
</pre>
<hr />
<p><a href="/wiki/Annotation:Land_of_the_Trees_(The)" title="Annotation:Land of the Trees (The)">Tune annotations</a>
</p><p><br />
</p>
<!--
NewPP limit report
Cached time: 20220502015109
Cache expiry: 1209600
Dynamic content: false
Complications: [varyâuser]
[SMW] Inâtext annotation parser time: 0.011 seconds
CPU time usage: 0.082 seconds
Real time usage: 0.128 seconds
Preprocessor visited node count: 1993/1000000
Postâexpand include size: 19847/2097152 bytes
Template argument size: 2465/2097152 bytes
Highest expansion depth: 8/40
Expensive parser function count: 0/100
Unstrip recursion depth: 0/20
Unstrip postâexpand size: 793/5000000 bytes
Lua time usage: 0.030/7 seconds
Lua virtual size: 9.21 MB/50 MB
Lua estimated memory usage: 0 bytes
-->
<!--
Transclusion expansion time report (%,ms,calls,template)
100.00%  100.316      1 Template:Abctune
100.00%  100.316      1 -total
 57.03%   57.210      1 Template:Break
 27.97%   28.059     45 Template:Font
  1.26%    1.262      1 Template:F_score
-->





